X:0810681
T:[ID 8-10a]
T:Bezeichnung standardisiert: Schwabisch
T:Schwabisch
C:Urheber unbekannt
C:Datum in der hier transkribierten schriftlichen Quelle: 1792
O:Deutschland; Westfalen; Dinker
S:"Tanzsammlung Dahlhoff" Staatsbibliothek zu Berlin, Musiksammlung, Mus. ms. 40182, Buch 08, 068/1, PDF Nr: 1007
S:Scan online: http://resolver.staatsbibliothek-berlin.de/SBB0000969000001007
F:http://simonwascher.info/TradArchiv/Dahlhoff/ file-version 2017-11-21
Z:Erfassung in abc Simon Wascher
F:http://simonwascher.info/TradArchiv/Dahlhoff/ file-version 2017-11-21
Z:Erfassungsdatum: 2012-04-17
M:3/8
L:1/16
K:D
d2d2d2 | d4ga | g2e2c2 | dcded2 | d2d2d2 | d4ga | g2e2c2 | d6 ::
ABcde2 | defga2 | ABcdec | d6 H:|

